static/assets/head_icons_png/man/bizi/1026110.svg

<svg xmlns="http://www.w3.org/2000/svg" width="6" height="9"><g transform="translate(2.85 4.25)"><path d="M2.25 3.35l-.6.2-.25.25q.35-.8.65-.75.35 0 .2.3m-2.6-.3q.3-.05.65.75l-.2-.25-.65-.2q-.15-.3.2-.3" fill="#ad5c27"/><radialGradient id="a" gradientUnits="userSpaceOnUse" gradientTransform="matrix(.00294 0 0 .00294 0 .25)" spreadMethod="pad" cx="0" cy="0" r="819.2" fx="210473" fy="0"><stop offset=".337" stop-color="#f9c29f"/><stop offset="1" stop-color="#fedec1" stop-opacity="0"/></radialGradient><path d="M-.6-1.9v.75l-.05.95L-.8.85l-.25.85-.15.65-.05.15-1.15-1.1-.45-1.55q0-1.8 1.6-1.85H-.95v.05L-1-1.5l.25-.45h.15v.05" fill="url(#a)"/><radialGradient id="b" gradientUnits="userSpaceOnUse" gradientTransform="matrix(-.00427 0 0 .0047 .65 4.1)" spreadMethod="pad" cx="0" cy="0" r="819.2" fx="0" fy="0"><stop offset="0" stop-color="#f7c19d"/><stop offset=".988" stop-color="#ffe1c4"/></radialGradient><path d="M2.7 2.25l-.15-.05-.15.1-.5.5-.7.5H.6l-.45-.2-.4-.4-.35-.55.2-1.05.2-1.7-.1-1.3-.05-.05-.15-.45.5-.85q.9-1.6 1.1-.65l.2.5.8 2.6.1.6.2 1.1.35.9.1.3.05.3-.2-.15" fill="url(#b)"/><radialGradient id="c" gradientUnits="userSpaceOnUse" gradientTransform="matrix(-.0076 0 0 .00838 1 3.65)" spreadMethod="pad" cx="0" cy="0" r="819.2" fx="0" fy="0"><stop offset="0" stop-color="#f5a977"/><stop offset="1" stop-color="#f7c4a2" stop-opacity=".663"/></radialGradient><path d="M-.6-1.95v-.35l.1-.1.15.45.05.05.1 1.3-.2 1.7-.2 1.05.35.55.4.4.45.2h.6l.7-.5.5-.5.15-.1.15.05.2.15-.05.3-.5.7-.6.45-.45.3-.5.1-.35-.05-.8-.5-.8-.75-.1-.45.05-.15.15-.65.25-.85.15-1.05.05-.95v-.8m2.65 5q-.3-.05-.65.75l.25-.25.6-.2q.15-.3-.2-.3m-2.6.3l.65.2.2.25q-.35-.8-.65-.75-.35 0-.2.3" fill="url(#c)"/><radialGradient id="d" gradientUnits="userSpaceOnUse" gradientTransform="matrix(-.00047 0 0 .00208 .65 -.9)" spreadMethod="pad" cx="0" cy="0" r="819.2" fx="0" fy="0"><stop offset="0" stop-color="#fff" stop-opacity=".733"/><stop offset="1" stop-color="#fff" stop-opacity="0"/></radialGradient><path d="M.95-2.45L.9-2.5l-.35.25Q.4-2 .4-1.5L.45-.3.6.6l.15.2q.2 0 .2-.8v-.45L1-2.4l-.05-.05" fill="url(#d)"/><radialGradient id="e" gradientUnits="userSpaceOnUse" gradientTransform="matrix(-.00137 0 0 .00151 .9 2.05)" spreadMethod="pad" cx="0" cy="0" r="819.2" fx="0" fy="0"><stop offset="0" stop-color="#fff" stop-opacity=".373"/><stop offset="1" stop-color="#fff" stop-opacity="0"/></radialGradient><path d="M.75 1.15H.7q-.45 0-.75.3l-.25.5q0 .85 1.1.85l.6-.2.25-.55-.2-.65q-.25-.25-.7-.25" fill="url(#e)"/></g></svg>

<?xml version="1.0" encoding="utf-8"?>
<svg version="1.1" id="Layer_1"
xmlns="http://www.w3.org/2000/svg"
xmlns:xlink="http://www.w3.org/1999/xlink"
xmlns:author="http://www.sothink.com"
width="6px" height="9px"
xml:space="preserve">
<g id="471" transform="matrix(1, 0, 0, 1, 2.85, 4.25)">
<path style="fill:#AD5C27;fill-opacity:1" d="M2.25,3.35L1.65 3.55L1.4 3.8Q1.75 3 2.05 3.05Q2.4 3.05 2.25 3.35M-0.35,3.05Q-0.05 3 0.3 3.8L0.1 3.55L-0.55 3.35Q-0.7 3.05 -0.35 3.05" />
<radialGradient
id="RadialGradID_4082" gradientUnits="userSpaceOnUse" gradientTransform="matrix(0.00294495, 0, 0, 0.00294495, 0, 0.25)" spreadMethod ="pad" cx="0" cy="0" r="819.2" fx="210473" fy="0" >
<stop  offset="0.337255"  style="stop-color:#F9C29F;stop-opacity:1" />
<stop  offset="1"  style="stop-color:#FEDEC1;stop-opacity:0" />
</radialGradient>
<path style="fill:url(#RadialGradID_4082) " d="M-0.6,-1.9L-0.6 -1.15L-0.65 -0.2L-0.8 0.85L-1.05 1.7L-1.2 2.35L-1.25 2.5L-2.4 1.4L-2.85 -0.15Q-2.85 -1.95 -1.25 -2L-1.15 -2L-0.95 -2L-0.95 -1.95L-1 -1.5L-0.75 -1.95L-0.6 -1.95L-0.6 -1.9" />
<radialGradient
id="RadialGradID_4083" gradientUnits="userSpaceOnUse" gradientTransform="matrix(-0.00427246, 0, 0, 0.00469971, 0.65, 4.1)" spreadMethod ="pad" cx="0" cy="0" r="819.2" fx="0" fy="0" >
<stop  offset="0"  style="stop-color:#F7C19D;stop-opacity:1" />
<stop  offset="0.988235"  style="stop-color:#FFE1C4;stop-opacity:1" />
</radialGradient>
<path style="fill:url(#RadialGradID_4083) " d="M2.7,2.25L2.55 2.2L2.4 2.3L1.9 2.8L1.2 3.3L0.6 3.3L0.15 3.1L-0.25 2.7L-0.6 2.15L-0.4 1.1L-0.2 -0.6L-0.3 -1.9L-0.35 -1.95L-0.5 -2.4L0 -3.25Q0.9 -4.85 1.1 -3.9L1.3 -3.4L2.1 -0.8L2.2 -0.2L2.4 0.9L2.75 1.8L2.85 2.1L2.9 2.4L2.7 2.25" />
<radialGradient
id="RadialGradID_4084" gradientUnits="userSpaceOnUse" gradientTransform="matrix(-0.00759888, 0, 0, 0.00837708, 1, 3.65)" spreadMethod ="pad" cx="0" cy="0" r="819.2" fx="0" fy="0" >
<stop  offset="0"  style="stop-color:#F5A977;stop-opacity:1" />
<stop  offset="1"  style="stop-color:#F7C4A2;stop-opacity:0.662745" />
</radialGradient>
<path style="fill:url(#RadialGradID_4084) " d="M-0.6,-1.95L-0.6 -2.15L-0.6 -2.3L-0.5 -2.4L-0.35 -1.95L-0.3 -1.9L-0.2 -0.6L-0.4 1.1L-0.6 2.15L-0.25 2.7L0.15 3.1L0.6 3.3L1.2 3.3L1.9 2.8L2.4 2.3L2.55 2.2L2.7 2.25L2.9 2.4L2.85 2.7L2.35 3.4L1.75 3.85L1.3 4.15L0.8 4.25L0.45 4.2L-0.35 3.7L-1.15 2.95L-1.25 2.5L-1.2 2.35L-1.05 1.7L-0.8 0.85L-0.65 -0.2L-0.6 -1.15L-0.6 -1.9L-0.6 -1.95M2.05,3.05Q1.75 3 1.4 3.8L1.65 3.55L2.25 3.35Q2.4 3.05 2.05 3.05M-0.55,3.35L0.1 3.55L0.3 3.8Q-0.05 3 -0.35 3.05Q-0.7 3.05 -0.55 3.35" />
<radialGradient
id="RadialGradID_4085" gradientUnits="userSpaceOnUse" gradientTransform="matrix(-0.000473022, 0, 0, 0.0020752, 0.65, -0.9)" spreadMethod ="pad" cx="0" cy="0" r="819.2" fx="0" fy="0" >
<stop  offset="0"  style="stop-color:#FFFFFF;stop-opacity:0.733333" />
<stop  offset="1"  style="stop-color:#FFFFFF;stop-opacity:0" />
</radialGradient>
<path style="fill:url(#RadialGradID_4085) " d="M0.95,-2.45L0.9 -2.5L0.55 -2.25Q0.4 -2 0.4 -1.5L0.45 -0.3L0.6 0.6L0.75 0.8Q0.95 0.8 0.95 0L0.95 -0.45L1 -2.4L0.95 -2.45" />
<radialGradient
id="RadialGradID_4086" gradientUnits="userSpaceOnUse" gradientTransform="matrix(-0.00137329, 0, 0, 0.00151062, 0.9, 2.05)" spreadMethod ="pad" cx="0" cy="0" r="819.2" fx="0" fy="0" >
<stop  offset="0"  style="stop-color:#FFFFFF;stop-opacity:0.372549" />
<stop  offset="1"  style="stop-color:#FFFFFF;stop-opacity:0" />
</radialGradient>
<path style="fill:url(#RadialGradID_4086) " d="M0.75,1.15L0.7 1.15Q0.25 1.15 -0.05 1.45L-0.3 1.95Q-0.3 2.8 0.8 2.8L1.4 2.6L1.65 2.05L1.45 1.4Q1.2 1.15 0.75 1.15" />
</g>
</svg>
